icons/linear-new-people-triple.svg

<svg xmlns="http://www.w3.org/2000/svg" width="32px" height="32px" viewBox="0 0 32 32" version="1.1">
    <title>linear-new-people-triple</title>
    <g id="linear-new-people-triple" stroke-width="1" fill-rule="evenodd">
        <path d="M24,5 C27.3137085,5 30,7.6862915 30,11 C30,14.3137085 27.3137085,17 24,17 C23.3135352,17 22.6539959,16.8847181 22.0396859,16.6724581 C22.5958625,16.1688327 23.0886496,15.5966911 23.5048786,14.9693475 C23.6666674,14.9896585 23.832126,15 24,15 C26.209139,15 28,13.209139 28,11 C28,8.95976487 26.4725175,7.27629239 24.4987628,7.0307928 C24.2490882,6.31586991 23.910952,5.64078183 23.4977603,5.01994049 C23.6622324,5.00704566 23.8302934,5 24,5 Z M8,5 C8.16970658,5 8.33776757,5.00704566 8.50390639,5.02086044 C8.08904796,5.64078183 7.75091182,6.31586991 7.50078874,7.0322472 C5.52748248,7.27629239 4,8.95976487 4,11 C4,13.209139 5.790861,15 8,15 C8.16787397,15 8.33333255,14.9896585 8.49577345,14.9695779 C8.91135039,15.5966911 9.40413754,16.1688327 9.96015415,16.6724434 C9.34600415,16.8847181 8.68646484,17 8,17 C4.6862915,17 2,14.3137085 2,11 C2,7.6862915 4.6862915,5 8,5 Z M16,3 C19.8659932,3 23,6.13400675 23,10 C23,13.8659932 19.8659932,17 16,17 C12.1340068,17 9,13.8659932 9,10 C9,6.13400675 12.1340068,3 16,3 Z M16,5 C13.2385763,5 11,7.23857625 11,10 C11,12.7614237 13.2385763,15 16,15 C18.7614237,15 21,12.7614237 21,10 C21,7.23857625 18.7614237,5 16,5 Z M20,19 C22.7614237,19 25,21.2385763 25,24 L25,28 C25,28.5522847 24.5522847,29 24,29 L8,29 C7.44771525,29 7,28.5522847 7,28 L7,24 C7,21.2385763 9.23857625,19 12,19 L20,19 Z M20,21 L12,21 C10.3431458,21 9,22.3431458 9,24 L9,27 L23,27 L23,24 C23,22.4023191 21.75108,21.0963391 20.1762728,21.0050927 L20,21 Z M7.10165647,18.9993737 C6.51567783,19.5734408 6.03017686,20.2496799 5.6739809,20.9992639 L5,21 C3.8954305,21 3,21.8954305 3,23 L3,25 L5,24.9993737 L5,26.9993737 L2,27 C1.44771525,27 1,26.5522847 1,26 L1,23 C1,20.790861 2.790861,19 5,19 L7.10165647,18.9993737 Z M27,19 C29.209139,19 31,20.790861 31,23 L31,26 C31,26.5522847 30.5522847,27 30,27 L27,26.9993737 L27,24.9993737 L29,25 L29,23 C29,21.9456382 28.1841222,21.0818349 27.1492623,21.0054857 L27,21 L26.3260191,20.9992639 C25.9698231,20.2496799 25.4843222,19.5734408 24.8983435,18.9993737 L27,19 Z" id="&#24418;&#29366;" fill-rule="nonzero" />
    </g>
</svg>

<svg xmlns="http://www.w3.org/2000/svg" viewBox="0 0 32 32"><path fill="currentColor" d="M24 5a6 6 0 1 1-1.96 11.672 9.043 9.043 0 0 0 1.465-1.703 4 4 0 0 0 .994-7.939 8.966 8.966 0 0 0-1.001-2.01c.164-.013.332-.02.502-.02M8 5c.17 0 .338.007.504.02A8.877 8.877 0 0 0 7.5 7.033a4 4 0 0 0 .995 7.937c.415.628.908 1.2 1.464 1.703A6 6 0 1 1 8 5m8-2a7 7 0 1 1 0 14 7 7 0 0 1 0-14m0 2a5 5 0 1 0 0 10 5 5 0 0 0 0-10m4 14a5 5 0 0 1 5 5v4a1 1 0 0 1-1 1H8a1 1 0 0 1-1-1v-4a5 5 0 0 1 5-5zm0 2h-8a3 3 0 0 0-3 3v3h14v-3a3 3 0 0 0-2.824-2.995zM7.102 19a7.018 7.018 0 0 0-1.428 2H5a2 2 0 0 0-2 2v2h2v2H2a1 1 0 0 1-1-1v-3a4 4 0 0 1 4-4zM27 19a4 4 0 0 1 4 4v3a1 1 0 0 1-1 1h-3v-2h2v-2a2 2 0 0 0-1.85-1.995L27 21h-.674a7.018 7.018 0 0 0-1.428-2z"/></svg>
